X:133
T:Moulton's Q.S.
S:American Veteran Fifer #133
C:By A.F. Hopkins, Dedicated to B.M. Moulton Commander Department of Ohio G.A.R. 1904-1905
M:2/4
L:1/8
Q:1/8=180
K:D 
%%MIDI program 72
%%MIDI transpose 8
%%MIDI ratio 3 1
((3B/c/B/) | ABce | e/f/e/c/ d/e/f/g/ | f/a/a/f/ ga | a/f/g/a/ g/e/d/c/ | 
B/A/B/c/ ed | e/f/e/c/ d/e/f/g/ | f/a/a/f/ ga/f/ | g/e/c/A/ d :|
|: z | a4- | a>g f/a/a/f/ | ge fd/d/ | e/f/e/c/ dA |
df a2- | a3g | f/a/a/f/ gc | dfd :|



